public/avatar/body/73.svg

<svg xmlns:xlink="http://www.w3.org/1999/xlink" height="82" width="84.85" xmlns="http://www.w3.org/2000/svg"><g transform="translate(37.4 42.25)"><use height="38" transform="translate(-11.95 -17.45)" width="32.05" xlink:href="#a"/><use height="38.95" transform="translate(-12.45 -17.95)" width="33.05" xlink:href="#b"/><use height="37.5" transform="translate(-15.1 -12.75)" width="38.7" xlink:href="#c"/></g><defs><path d="M27.35 7.4q2.15 4.15 3.55 8.75 1.45 4.7 1.15 9.5-.35 4.95-4.2 8.1-3.8 3.2-8.75 4.05l-2.6.2q-3.6 0-7.05-1.15-4.65-1.6-7.1-5.5Q-.2 27.4.05 23q.2-4.4 2-9.3Q3.85 8.75 7 5.05 10.1 1.3 14.7.1l1.8-.1q1.9.05 3.7.8 4.75 2.05 7.15 6.6" fill="#fff" fill-rule="evenodd" transform="translate(-.05)" id="d"/><path d="M27.35 7.4Q24.95 2.85 20.2.8 17.55-.3 14.7.1 10.1 1.3 7 5.05q-3.15 3.7-4.95 8.65-1.8 4.9-2 9.3-.25 4.4 2.3 8.35 2.45 3.9 7.1 5.5 4.65 1.55 9.65.95 4.95-.85 8.75-4.05 3.85-3.15 4.2-8.1.3-4.8-1.15-9.5-1.4-4.6-3.55-8.75Z" fill="none" stroke="#4d1a1a" stroke-linecap="round" stroke-linejoin="round" transform="translate(.45 .5)" id="e"/><use height="38" width="32.05" xlink:href="#d" id="a"/><use height="38.95" width="33.05" xlink:href="#e" id="b"/><g id="c"><path d="m20.7 6.5-3.65 9.3q-6.55 1.7-12.7 1.7l-13.3-1.25-3.25-10 .3-3.1 3.5 4.35q5.1 5.55 10.4 6.55.35.05.9.85.5.75.9.75.95 0 3.25-1.75 4.85-1.25 9.25-6.4L19.95 3l.75 3.5" fill="#e80000" fill-rule="evenodd" transform="translate(15.1 12.75)"/><path d="M3.25-9.25q1.55-3.5 4.75-3.5 5.1 0 5.8 3.75.55 2.75-1.3 5.15-2.1 2.7-6.05 2.7-1.6 0-2.7-3.45-1.05-3.2-.5-4.65" fill="#b6c48b" fill-rule="evenodd" transform="translate(15.1 12.75)"/><path d="M4.75-9.25Q5.3-7.8 4.3-4.6 3.15-1.15 1.55-1.15q-3.9 0-5.9-2.65-1.75-2.35-1.2-5.05.75-3.9 5.55-3.9 3.2 0 4.75 3.5" fill="#b6c48b" fill-rule="evenodd" transform="translate(15.1 12.75)"/><path d="M21.8 21.05q0 1.1-2.35-.25-.1 1.95-1 2.2-.95.25-2.1-1.35-.55 1.9-2.15 2.1-1 .1-1.4-.7l-.25-.8q-.85 2.05-2.45 2.25-.95.1-1.6-.9l-.4-1.05q-.5 1.95-2.05 2.1-1 .05-1.7-.9l-.5-1q-.65 1.8-2.25 1.9-.95.05-1.6-1l-.4-1.1q-.85 2.2-2.25 2.2-.85 0-1.4-1.2l-.35-1.25q-.9 1.95-2.5 1.75-1.55-.15-1.25-2.25-1 1.7-2.05 1.5-1.1-.15-1-2.25-.75 1.1-2.2 1.1-1.4 0 1.2-3.4Q1 21.3 3.35 21.15 5.7 21 20.3 17.3l1.5 3.75" fill="#361d00" fill-rule="evenodd" transform="translate(15.1 12.75)"/><path d="m17.1 11.65 2.6 4.1q.95 1.9 1.4 4.15-2.5 2.75-16.65 2.75-14.2 0-17.15-2.4.55-2 1.65-3.85l2.3-3.65q6.75 3.4 13.55 3.4 6.8 0 12.3-4.5" fill="#e80000" fill-rule="evenodd" transform="translate(15.1 12.75)"/><path d="M12.45 6.1q.65-.7 1.35-.7 1.05 0 1.4 2.15L11.05 8.9q-1.2.2-3 2.85L5.3 14.9l-.6-.35q-.75-1.5-.35-2.4.3-.55.9-.75l.55-.1-.35-1.3q-.2-1.4.5-1.95 1.15-.8 2.25.35l1.35-2.35q.8-.5 2.4.75l.5-.7" fill="#ffa600" fill-rule="evenodd" transform="translate(15.1 12.75)"/><path d="m2.7 14.9-2.75-3.15q-1.8-2.65-3-2.85l-4.2-1.35.3-1.05q.45-1.1 1.15-1.1 1.1 0 1.85 1.4l.9-.55q.95-.5 1.5-.2.8.5 1.35 2.35l.65-.45 1.55.1q1.2.85.2 3.25l.55.1.85.75q.4.9-.35 2.4l-.55.35" fill="#ffa600" fill-rule="evenodd" transform="translate(15.1 12.75)"/><path d="M4.25 16q.7-1.75 1.75-3.65Q8.15 8.6 10.1 7.8q3.15-1.2 7 .15-2.85 5.05-5.35 6.55-2.5 1.5-7.5 1.5m-8.35-1.5q-1.55-.95-3.6-3.85l-1.75-2.7 2.3-.5 4.7.35Q.75 9.05 3.4 16q-5 0-7.5-1.5M20.1-.4q1.2.25 1.25.65.15.6-.4 1.5l.7.15q.75.3 1.1 1.1.6 1.25-.45 3.5l-1.25 1.4-3.35-1.75v-.4q1.1-2.1 1.25-3.5V-.6l1.15.2" fill="#e80000" fill-rule="evenodd" transform="translate(15.1 12.75)"/><path d="m19.35 1.05.25.1 2.25 3.75-1.75 4.5-4.3 2.1v-2q.2-4.1.8-5.2l2.75-3.25" fill="#e80000" fill-rule="evenodd" transform="translate(15.1 12.75)"/><path d="m16.85 6 1.6 3.25-1.65 7.25q2.25 1.5.25 1.5l-2.45-.6q-.05-4 .25-5.85l2-5.55M-11.7-.4l1.15-.2v2.85q.1 1.4 1.25 3.5v.4l-3.4 1.75-1.25-1.4q-1-2.25-.45-3.5.4-.8 1.15-1.1l.7-.15q-.55-.9-.45-1.5.1-.4 1.3-.65" fill="#e80000" fill-rule="evenodd" transform="translate(15.1 12.75)"/><path d="m-11 1.05 2.8 3.25q.35.65.8 5.2v2l-4.35-2.1-1.75-4.5 2.25-3.75.25-.1" fill="#e80000" fill-rule="evenodd" transform="translate(15.1 12.75)"/><path d="m-8.5 6 2 5.55q.35 1.85.25 5.85.85 1.4-1.15 1.4t-2.15-2.15l-.5-7.4L-8.5 6" fill="#e80000" fill-rule="evenodd" transform="translate(15.1 12.75)"/><path d="M16.05 7.75q-3.7.05-5.75 1.5-1.3.9-2.4 3.5l-.8 2.4-3.25 5.5-3.4-5.35q-1.15-4.75-2.9-6.15-1.1-.85-3.25-1.3l-1.95-.3 2.2-.25q2.45-.1 3.75.85 2.7 2 3.7 4.7.4.85 1.85 2.4l1.7-2.3q1.95-3.5 3.7-4.7 2.55-1.85 6.8-.5" fill="#361d00" fill-rule="evenodd" transform="translate(15.1 12.75)"/><path d="m20.3 17.3 1.05 2.6q-3.3 2.85-17.5 2.85-13.25 0-17-2.45l1.25-2.05.7 1.65Q-8.45 22 3.95 22q12.75 0 15.85-2.2.65-.5.5-2.5" fill="#361d00" fill-rule="evenodd" transform="translate(15.1 12.75)"/><path d="M4.6 14.15q1.75-4.15 4.25-6 2.5-1.85 6.35-.6-3.9-.05-5.85.95-1.2.65-2.9 3.55l-1.5 2.75-.35-.65m-1.55.65Q.55 9.5-1.4 8.5q-1.2-.6-3.6-.85l-2.2-.1 2.2-.4q2.55-.15 4.1 1 2.5 1.85 4.25 6l-.3.65" fill="#ffa600" fill-rule="evenodd" transform="translate(15.1 12.75)"/><path d="M8.3 16.1q4.15-.75 5.35-1.95l2.1-2.55q.8 1.9-1.7 3.75-2.5 1.8-5.75.75m-8.5 0q-3.25 1.05-5.75-.75-1.55-1.15-1.8-2.55l.1-1.2 2.1 2.55q1.2 1.2 5.35 1.95" fill="#c20000" fill-rule="evenodd" transform="translate(15.1 12.75)"/><path d="M19.2-.7q1.1.5 2.15.95.2.4-.4 1.5l.85.3q.9.5 1.15 1.45.4 1.5-.4 2.65M-10.55-.6-13 .25q-.15.55.45 1.5l-.75.2q-.85.4-1.15 1.35-.5 1.6.5 3" fill="none" stroke="#ff8585" stroke-linecap="round" stroke-linejoin="round" transform="translate(15.1 12.75)"/><path d="m18.45 13.4 2.25 5.85m-30.5-4.8-1.9 4.8" fill="none" stroke="#ba0000" stroke-linecap="round" stroke-linejoin="round" transform="translate(15.1 12.75)"/></g></defs></svg>

<?xml version="1.0" encoding="UTF-8" standalone="no"?>
<svg xmlns:xlink="http://www.w3.org/1999/xlink" height="82.0px" width="84.85px" xmlns="http://www.w3.org/2000/svg">
  <g transform="matrix(1.0, 0.0, 0.0, 1.0, 37.4, 42.25)">
    <use height="38.0" transform="matrix(1.0, 0.0, 0.0, 1.0, -11.95, -17.45)" width="32.05" xlink:href="#sprite0"/>
    <use height="38.95" transform="matrix(1.0, 0.0, 0.0, 1.0, -12.45, -17.95)" width="33.05" xlink:href="#sprite1"/>
    <use height="37.5" transform="matrix(1.0, 0.0, 0.0, 1.0, -15.1, -12.75)" width="38.7" xlink:href="#shape2"/>
  </g>
  <defs>
    <g id="sprite0" transform="matrix(1.0, 0.0, 0.0, 1.0, -0.05, 0.0)">
      <use height="38.0" transform="matrix(1.0, 0.0, 0.0, 1.0, 0.05, 0.0)" width="32.05" xlink:href="#shape0"/>
    </g>
    <g id="shape0" transform="matrix(1.0, 0.0, 0.0, 1.0, -0.05, 0.0)">
      <path d="M27.35 7.4 Q29.5 11.55 30.9 16.15 32.35 20.85 32.05 25.65 31.7 30.6 27.85 33.75 24.05 36.95 19.1 37.8 L16.5 38.0 Q12.9 38.0 9.45 36.85 4.8 35.25 2.35 31.35 -0.2 27.4 0.05 23.0 0.25 18.6 2.05 13.7 3.85 8.75 7.0 5.05 10.1 1.3 14.7 0.1 L16.5 0.0 Q18.4 0.05 20.2 0.8 24.95 2.85 27.35 7.4" fill="#ffffff" fill-rule="evenodd" stroke="none"/>
    </g>
    <g id="sprite1" transform="matrix(1.0, 0.0, 0.0, 1.0, 0.45, 0.5)">
      <use height="38.95" transform="matrix(1.0, 0.0, 0.0, 1.0, -0.45, -0.5)" width="33.05" xlink:href="#shape1"/>
    </g>
    <g id="shape1" transform="matrix(1.0, 0.0, 0.0, 1.0, 0.45, 0.5)">
      <path d="M27.35 7.4 Q24.95 2.85 20.2 0.8 17.55 -0.3 14.7 0.1 10.1 1.3 7.0 5.05 3.85 8.75 2.05 13.7 0.25 18.6 0.05 23.0 -0.2 27.4 2.35 31.35 4.8 35.25 9.45 36.85 14.1 38.4 19.1 37.8 24.05 36.95 27.85 33.75 31.7 30.6 32.05 25.65 32.35 20.85 30.9 16.15 29.5 11.55 27.35 7.4 Z" fill="none" stroke="#4d1a1a" stroke-linecap="round" stroke-linejoin="round" stroke-width="1.0"/>
    </g>
    <g id="shape2" transform="matrix(1.0, 0.0, 0.0, 1.0, 15.1, 12.75)">
      <path d="M20.7 6.5 L17.05 15.8 Q10.5 17.5 4.35 17.5 L-8.95 16.25 -12.2 6.25 -11.9 3.15 -8.4 7.5 Q-3.3 13.05 2.0 14.05 2.35 14.1 2.9 14.9 3.4 15.65 3.8 15.65 4.75 15.65 7.05 13.9 11.9 12.65 16.3 7.5 L19.95 3.0 20.7 6.5" fill="#e80000" fill-rule="evenodd" stroke="none"/>
      <path d="M3.25 -9.25 Q4.8 -12.75 8.0 -12.75 13.1 -12.75 13.8 -9.0 14.35 -6.25 12.5 -3.85 10.4 -1.15 6.45 -1.15 4.85 -1.15 3.75 -4.6 2.7 -7.8 3.25 -9.25" fill="#b6c48b" fill-rule="evenodd" stroke="none"/>
      <path d="M4.75 -9.25 Q5.3 -7.8 4.3 -4.6 3.15 -1.15 1.55 -1.15 -2.35 -1.15 -4.35 -3.8 -6.1 -6.15 -5.55 -8.85 -4.8 -12.75 0.0 -12.75 3.2 -12.75 4.75 -9.25" fill="#b6c48b" fill-rule="evenodd" stroke="none"/>
      <path d="M21.8 21.05 Q21.8 22.15 19.45 20.8 19.35 22.75 18.45 23.0 17.5 23.25 16.35 21.65 15.8 23.55 14.2 23.75 13.2 23.85 12.8 23.05 L12.55 22.25 Q11.7 24.3 10.1 24.5 9.15 24.6 8.5 23.6 L8.1 22.55 Q7.6 24.5 6.05 24.65 5.05 24.7 4.35 23.75 L3.85 22.75 Q3.2 24.55 1.6 24.65 0.65 24.7 0.0 23.65 L-0.4 22.55 Q-1.25 24.75 -2.65 24.75 -3.5 24.75 -4.05 23.55 L-4.4 22.3 Q-5.3 24.25 -6.9 24.05 -8.45 23.9 -8.15 21.8 -9.15 23.5 -10.2 23.3 -11.3 23.15 -11.2 21.05 -11.95 22.15 -13.4 22.15 -14.8 22.15 -12.2 18.75 1.0 21.3 3.35 21.15 5.7 21.0 20.3 17.3 L21.8 21.05" fill="#361d00" fill-rule="evenodd" stroke="none"/>
      <path d="M17.1 11.65 L19.7 15.75 Q20.65 17.65 21.1 19.9 18.6 22.65 4.45 22.65 -9.75 22.65 -12.7 20.25 -12.15 18.25 -11.05 16.4 L-8.75 12.75 Q-2.0 16.15 4.8 16.15 11.6 16.15 17.1 11.65" fill="#e80000" fill-rule="evenodd" stroke="none"/>
      <path d="M12.45 6.1 Q13.1 5.4 13.8 5.4 14.85 5.4 15.2 7.55 L11.05 8.9 Q9.85 9.1 8.05 11.75 L5.3 14.9 4.7 14.55 Q3.95 13.05 4.35 12.15 4.65 11.6 5.25 11.4 L5.8 11.3 5.45 10.0 Q5.25 8.6 5.95 8.05 7.1 7.25 8.2 8.4 L9.55 6.05 Q10.35 5.55 11.95 6.8 L12.45 6.1" fill="#ffa600" fill-rule="evenodd" stroke="none"/>
      <path d="M2.7 14.9 L-0.05 11.75 Q-1.85 9.1 -3.05 8.9 L-7.25 7.55 -6.95 6.5 Q-6.5 5.4 -5.8 5.4 -4.7 5.4 -3.95 6.8 L-3.05 6.25 Q-2.1 5.75 -1.55 6.05 -0.75 6.55 -0.2 8.4 L0.45 7.95 2.0 8.05 Q3.2 8.9 2.2 11.3 L2.75 11.4 3.6 12.15 Q4.0 13.05 3.25 14.55 L2.7 14.9" fill="#ffa600" fill-rule="evenodd" stroke="none"/>
      <path d="M4.25 16.0 Q4.95 14.25 6.0 12.35 8.15 8.6 10.1 7.8 13.25 6.6 17.1 7.95 14.25 13.0 11.75 14.5 9.25 16.0 4.25 16.0" fill="#e80000" fill-rule="evenodd" stroke="none"/>
      <path d="M-4.1 14.5 Q-5.65 13.55 -7.7 10.65 L-9.45 7.95 -7.15 7.45 -2.45 7.8 Q0.75 9.05 3.4 16.0 -1.6 16.0 -4.1 14.5" fill="#e80000" fill-rule="evenodd" stroke="none"/>
      <path d="M20.1 -0.4 Q21.3 -0.15 21.35 0.25 21.5 0.85 20.95 1.75 L21.65 1.9 Q22.4 2.2 22.75 3.0 23.35 4.25 22.3 6.5 L21.05 7.9 17.7 6.15 17.7 5.75 Q18.8 3.65 18.95 2.25 L18.95 -0.6 20.1 -0.4" fill="#e80000" fill-rule="evenodd" stroke="none"/>
      <path d="M19.35 1.05 L19.6 1.15 21.85 4.9 20.1 9.4 15.8 11.5 15.8 9.5 Q16.0 5.4 16.6 4.3 L19.35 1.05" fill="#e80000" fill-rule="evenodd" stroke="none"/>
      <path d="M16.85 6.0 L18.45 9.25 16.8 16.5 Q19.05 18.0 17.05 18.0 L14.6 17.4 Q14.55 13.4 14.85 11.55 L16.85 6.0" fill="#e80000" fill-rule="evenodd" stroke="none"/>
      <path d="M-11.7 -0.4 L-10.55 -0.6 -10.55 2.25 Q-10.45 3.65 -9.3 5.75 L-9.3 6.15 -12.7 7.9 -13.95 6.5 Q-14.95 4.25 -14.4 3.0 -14.0 2.2 -13.25 1.9 L-12.55 1.75 Q-13.1 0.85 -13.0 0.25 -12.9 -0.15 -11.7 -0.4" fill="#e80000" fill-rule="evenodd" stroke="none"/>
      <path d="M-11.0 1.05 L-8.2 4.3 Q-7.85 4.95 -7.4 9.5 L-7.4 11.5 -11.75 9.4 -13.5 4.9 -11.25 1.15 -11.0 1.05" fill="#e80000" fill-rule="evenodd" stroke="none"/>
      <path d="M-8.5 6.0 L-6.5 11.55 Q-6.15 13.4 -6.25 17.4 -5.4 18.8 -7.4 18.8 -9.4 18.8 -9.55 16.65 L-10.05 9.25 -8.5 6.0" fill="#e80000" fill-rule="evenodd" stroke="none"/>
      <path d="M16.05 7.75 Q12.35 7.8 10.3 9.25 9.0 10.15 7.9 12.75 L7.1 15.15 3.85 20.65 0.45 15.3 Q-0.7 10.55 -2.45 9.15 -3.55 8.3 -5.7 7.85 L-7.65 7.55 -5.45 7.3 Q-3.0 7.2 -1.7 8.15 1.0 10.15 2.0 12.85 2.4 13.7 3.85 15.25 L5.55 12.95 Q7.5 9.45 9.25 8.25 11.8 6.4 16.05 7.75" fill="#361d00" fill-rule="evenodd" stroke="none"/>
      <path d="M20.3 17.3 L21.35 19.9 Q18.05 22.75 3.85 22.75 -9.4 22.75 -13.15 20.3 L-11.9 18.25 -11.2 19.9 Q-8.45 22.0 3.95 22.0 16.7 22.0 19.8 19.8 20.45 19.3 20.3 17.3" fill="#361d00" fill-rule="evenodd" stroke="none"/>
      <path d="M4.6 14.15 Q6.35 10.0 8.85 8.15 11.35 6.3 15.2 7.55 11.3 7.5 9.35 8.5 8.15 9.15 6.45 12.05 L4.95 14.8 4.6 14.15" fill="#ffa600" fill-rule="evenodd" stroke="none"/>
      <path d="M3.05 14.8 Q0.55 9.5 -1.4 8.5 -2.6 7.9 -5.0 7.65 L-7.2 7.55 -5.0 7.15 Q-2.45 7.0 -0.9 8.15 1.6 10.0 3.35 14.15 L3.05 14.8" fill="#ffa600" fill-rule="evenodd" stroke="none"/>
      <path d="M8.3 16.1 Q12.45 15.35 13.65 14.15 L15.75 11.6 Q16.55 13.5 14.05 15.35 11.55 17.15 8.3 16.1" fill="#c20000" fill-rule="evenodd" stroke="none"/>
      <path d="M-0.2 16.1 Q-3.45 17.15 -5.95 15.35 -7.5 14.2 -7.75 12.8 L-7.65 11.6 -5.55 14.15 Q-4.35 15.35 -0.2 16.1" fill="#c20000" fill-rule="evenodd" stroke="none"/>
      <path d="M19.2 -0.7 Q20.3 -0.2 21.35 0.25 21.55 0.65 20.95 1.75 L21.8 2.05 Q22.7 2.55 22.95 3.5 23.35 5.0 22.55 6.15" fill="none" stroke="#ff8585" stroke-linecap="round" stroke-linejoin="round" stroke-width="1.0"/>
      <path d="M-10.55 -0.6 L-13.0 0.25 Q-13.15 0.8 -12.55 1.75 L-13.3 1.95 Q-14.15 2.35 -14.45 3.3 -14.95 4.9 -13.95 6.3" fill="none" stroke="#ff8585" stroke-linecap="round" stroke-linejoin="round" stroke-width="1.0"/>
      <path d="M18.45 13.4 L20.7 19.25" fill="none" stroke="#ba0000" stroke-linecap="round" stroke-linejoin="round" stroke-width="1.0"/>
      <path d="M-9.8 14.45 L-11.7 19.25" fill="none" stroke="#ba0000" stroke-linecap="round" stroke-linejoin="round" stroke-width="1.0"/>
    </g>
  </defs>
</svg>
